src/places/symbolic/network-server-symbolic.svg

<svg width="16" height="16" version="1.1" xmlns="http://www.w3.org/2000/svg">
 <g fill="#363636">
  <path d="m5.0746 0c-0.40017 0-0.79634 0.48521-1.1771 0.90104s-0.90907 1.0962-0.90907 1.6267v12.293c0 0.6529 0.53787 1.1788 1.2056 1.1788h7.5885c0.66772 0 1.2056-0.52592 1.2056-1.1788v-12.293c0-0.5305-0.52823-1.2109-0.90907-1.6267-0.38083-0.4158-0.777-0.90104-1.1771-0.90104h-3.5546zm0.79899 0.65712h4.2293c0.35402 0 0.68336 0.13053 0.93481 0.41667l0.64541 0.75c0.30953 0.40389 0.39594 0.63328 0.39594 1.0556h-8.1816c0-0.42227 0.086418-0.65166 0.39594-1.0556l0.64541-0.75c0.25145-0.28614 0.58079-0.41667 0.93482-0.41667zm-1.9762 2.8984h8.1816v11.556h-8.1816z"/>
  <rect x="3.8985" y="3.56" width="8.1816" height="11.556" rx="0" ry="0" opacity=".3"/>
  <ellipse cx="7.9893" cy="1.62" rx="1.1505" ry=".34722"/>
  <path d="m8.02 1.27s0.10043-0.20624 0.33144-0.26516c0.23102-0.0589-0.10043 0.37319-0.33144 0.26516z" fill-rule="evenodd"/>
 </g>
</svg>

<svg xmlns="http://www.w3.org/2000/svg" width="16" height="16">
    <g fill="#050505" opacity=".7">
        <path d="M5.075 0c-.4 0-.797.485-1.177.901s-.91 1.096-.91 1.627V14.82A1.19 1.19 0 0 0 4.194 16h7.589a1.19 1.19 0 0 0 1.205-1.18V2.529c0-.53-.528-1.211-.909-1.627C11.7.485 11.302 0 10.902 0H7.347zm.799.657h4.229c.354 0 .683.13.935.417l.645.75c.31.404.396.633.396 1.055H3.897c0-.422.087-.651.396-1.055l.646-.75c.251-.286.58-.417.935-.417zM3.897 3.556h8.182v11.556H3.897z"/>
        <rect width="8.182" height="11.556" x="3.898" y="3.56" opacity=".3" rx="0" ry="0"/>
        <ellipse cx="7.989" cy="1.62" rx="1.151" ry=".347"/>
        <path fill-rule="evenodd" d="M8.02 1.27s.1-.206.331-.265c.231-.06-.1.373-.331.265z"/>
    </g>
</svg>
